X:1
T:Tu es vas
T:Tu es vas
T:Roberto Vailerio
C:Roberto Vailerio
%%score [ 1 2 ] { 3 | 4 }
L:1/8
Q:1/4=120
M:4/4
K:C
V:1 treble nm="Soprano" snm="S"
V:2 treble-8 nm="Tenor" snm="T"
V:3 treble nm="BC" snm="BC"
V:4 bass 
V:1
"^Source:Selectae Cantiones---Liber I---Roma---B Zannettum---1616.\nEditor: André Vierendeels (31/12/08).\n" G8 A8 | %1
w: Tu es|
 c12 B4 | c4 d4 e8 | d4 g8 f4 | e2 d2 c2 d2 e2 f2 g4- | g4 f4 g6 f2 | e4 d6 c2 c4- | c4 B4 c8 | %8
w: vas e-|lec- ti- o-|nis San- cte|Pau- * * * * * *|* le a- *|* * po- sto-|* * le|
 z16 | z8 G8 | A8 c8- | c4 B4 c4 d4 | e8 d4 e4- | e4 d4 c2 B2 A2 B2 | c2 d2 e2 f2 g8 | %15
w: |Tu|es vas|_ e- lec- ti-|o- nis San-|* cte Pau- * * *||
 g4 f4 e6 e2 | d8 z8 | z16 | z4 g8 f4 | e4 d4 c4 B4 | A8 G8 | z4 e4 f6 e2 | d2 e2 c4 B8 | %23
w: le, A- po- sto-|le||prae- di-|ca- tor ve- ri-|ta- tis|in u- ni-|ver- so mun- do|
 z8 z4 e4 | f6 e2 d4 e4- | e4 d6 c2 c4- | c4 B4 c4 G4 | A4 c8 B4 | c6 d2 e2 f2 g4 | f2 e2 e8 d4 | %30
w: in|u- ni- ver- so|_ mun- * *|* * do, per|quem o- mnes|gen- * * * *||
 e8 z8 | z2 c2 d4 f8- | f4 e8 d4- | d2 c2 c2 BA B8 | A2 e4 e2 f4 d2 g2- | gf e2 d4 c8 | z16 | %37
w: tes|per quem o-|* mnes gen-||tes co- gno- ve- runt gra-|* ti- am De- i||
 z2 e4 e2 f4 d2 e2- | ed c2 B4 A8 | z4 A6 B2 ^c4 | d8 c4 f4- | f4 e6 d2 d4- | d4 ^c4 d8 | %43
w: co- gno- ve- runt gra-|* ti- am De- i|in- ter- ce-|de pro no|_ bis ad De-|* * um|
 z4 g6 f2 e4 | d4 e6 d2 c2 B2 | A4 d6 c2 B2 A2 | G6 A2 B2 c2 d2 e2 | f12 e4 | d8 c4 z2 G2 | %49
w: in- ter- ce-|de pro _ _ _|_ no- * * *||bis ad|De- um qui|
 ABcd efge f4 e4 | d4 c2 G2 ABcA Bcde | fecd efge f4 e4- | e2 d2 d8 ^c4 | d8 z8 | %54
w: te _ _ _ _ _ _ _ _ e-|lec- te qui te _ _ _ _ _ _ _|_ _ _ _ _ _ _ _ _ e-|* * * le-|git|
 z2 g2 efge fedc BcdB | edcB ABcd ef g3 fed | edcB A2 B2 c2 d2 e4- | e2 d2 c8 B4 | c16 |] %59
w: Qui te _ _ _ _ _ _ _ _ _ _ _|_ _ _ _ _ _ _ _ _ _ _ _ _ _||* * e- le-|git.|
V:2
 z16 | z16 | z16 | G8 A8 | c12 B4 | c4 d4 e6 d2 | c4 B4 A8 | G8 C4 c4- | c4 B4 A2 G2 F2 G2 | %9
w: |||Tu es|vas e-|lec- ti- o- *||* nis Sa-|* cte Pau- * * *|
 A2 B2 c8 B4 | c4 d4 A2 B2 c2 d2 | e6 d2 c4 B4 | c6 c2 G4 c4- | c4 B4 A2 G2 F2 G2 | %14
w: |le A- po- * * *||* sto- le San-|* cte Pau- * * *|
 A2 B2 c6 BA G4 | E4 D4 A6 A2 | D4 d8 c4 | B4 A4 G4 F4 | E8 D8 | z16 | z4 d4 e6 d2 | ^c2 d2 A4 D8 | %22
w: |le A- po- sto-|le prae- di-|ca- tor ve- ri-|ta- tis||in u- ni-|ver- so mun- do|
 z8 z4 G4 | A6 G2 ^F2 G2 E4 | D8 z4 C4 | G6 G2 A4 E4 | G8 C8 | z8 z4 G4 | A4 c8 B4 | A6 G2 F8 | %30
w: in|u- ni ver- so mun-|do in|u- ni- ver- so|mun- do,|per|quem o- mnes|gen- * *|
 E4 C4 G4 A4- | A4 G4 F2 G2 A2 B2 | c16 | d8 e8 | A8 z8 | z8 z2 c4 A2 | d4 B2 c3 B A2 G3 F | %37
w: tes per suem o-|* mnes gen- * * *|||tes|co- gno-|ve- runt gra- ti- am De- *|
 E8 D4 z4 | z8 z4 A4- | A2 B2 ^c4 d4 A4 | D2 E2 F2 G2 A6 B2 | c4 c4 F6 G2 | A8 D4 G4- | %43
w: * i|in-|* ter- ce- de pro|no- * * * * *|bis ad De- *|* um in-|
 G2 F2 E4 D4 C4 | G4 E4 A6 G2 | F2 E2 D4 G6 F2 | E2 D2 C4 G6 FE | D2 E2 F2 G2 A2 B2 c4- | %48
w: * ter- ce- de pro|no- bis ad _|_ _ _ De- *|||
 c4 B4 c8 | z4 z2 C2 DEFG ABcA | B4 c4 A4 G4 | z4 z2 C2 FGAB cdec | d4 _B4 A8 | %53
w: * * um|qui te _ _ _ _ _ _ _|_ e- le- git|qui te _ _ _ _ _ _ _|_ e- le-|
 D4 z2 d2 GABG ABcd | e4 c4 d4 G4 | z2 A2 FGAB cdec B2 c2- | cBAG F2 G2 A6 GF | E6 F2 G8 | C16 |] %59
w: git qui te _ _ _ _ _ _ _|_ e- le- git|qui te _ _ _ _ _ _ _ e- le-|||git.|
V:3
 z16 | z16 | z16 | z16 | z16 | z16 | z16 | z16 | z16 | z16 | z16 | z16 | z16 | z16 | z16 | z16 | %16
 z16 | z16 | z16 | z16 | z16 | z16"^-natural" | z16 | z16 | z16 | z16 | z16 | z16 | z16 | z16 | %30
 z16 | z16 | z16 | z16 | z16 | z16 | z16 | z16 | z16 | z16 | z16 | z16 | z16 | z16 | z16 | z16 | %46
 z16 | z16 | z16 | z16 | z16 | z16 | z16 | z16 | z16 | z16 | z16 | z16 | z16 |] %59
V:4
 G,8 D,8 | C,2 B,,2 A,,2 G,,2 F,,4 G,,4 | A,,4 F,,4 C,,2 D,,2 E,,2 F,,2 | G,,8 A,,8 | C,12 B,,4 | %5
 C,4 D,4 E,6 D,2 | C,4 B,,4 A,,8 | G,,8 C,,4 C,4- | C,4 B,,4 A,,2 G,,2 F,,2 G,,2 | %9
 A,,2 B,,2 C,8 B,,4 | C,4 D,4 A,,2 B,,2 C,2 D,2 | E,6 D,2 C,4 B,,4 | C,6 C,2 G,,4 C,4- | %13
 C,4 B,,4 A,,2 G,,2 F,,2 G,,2 | A,,2 B,,2 C,6 B,,A,, G,,2 F,,2 | E,,4 D,,4 A,,8 | D,,4 D,8 C,4 | %17
 B,,4 A,,4 G,,4 F,,4 | E,,8 D,,4 D,4 | C,4 B,,4 A,,4 G,,4 | D,8 E,6 D,2 | %21
 ^C,2 D,2 A,,4 D,,4 D,2 C,2 | B,,2 C,2 A,,4 G,,4 G,,4 | A,,6 G,,2 ^F,,2 G,,2 E,,4 | %24
 D,,8 G,,4 C,,4 | G,,8 A,,4 E,,4 | G,,8 C,,8 | F,,4 C,,4 G,,8 | A,,4 C,8 B,,4 | A,,6 G,,2 F,,8 | %30
 E,,4 C,,4 G,,4 A,,4- | A,,4 G,,4 F,,2 G,,2 A,,2 B,,2 | C,16 | D,8 E,8 | A,,8 D,,4 G,,4 | %35
 C,,4 G,,4 C,,2 C,4 A,,2 | D,4 B,,2 C,3 B,, A,,2 G,,3 F,, | E,,8 D,,4 G,,2 C,2- | %38
 C,B,, A,,2 D,2 E,2 A,,4 A,,4- | A,,2 B,,2 ^C,4 D,4 A,,4 | z16 | z16 | z16 | z16 | z16 | %45
 F,,2 E,,2 D,,4 G,,6 F,,2 | E,,2 D,,2 C,,4 G,,6 F,,E,, | D,,2 E,,2 F,,2 G,,2 A,,2 B,,2 C,4- | %48
 C,4 B,,4 C,,4 C,4 | F,,4 C,,4 D,,4 A,,4 | B,,4 C,4 A,,4 G,,4 | F,,4 C,,4 F,,4 C,4 | %52
 D,4 _B,,4 A,,8 | D,,4 B,,4 G,,4 A,,4 | %54
 E,4 C,4"^Notes: original keys:Sol, Ut 4rth, Ut 3rd\n           editorial accidentals above the staff" D,4 G,,4 | %55
 C,2 A,,2 F,,4 C,4 B,,2 C,2 | C,B,,A,,G,, F,,2 G,,2 A,,6 G,,F,, | E,,6 F,,2 G,,8 | C,,16 |] %59

